Newaita-dark/apps/48/exaile.svg

<svg height="48pt" viewBox="0 0 48 48" width="48pt" xmlns="http://www.w3.org/2000/svg" xmlns:xlink="http://www.w3.org/1999/xlink"><linearGradient id="a"><stop offset="0" stop-opacity=".313725"/><stop offset=".222222" stop-opacity=".27451"/><stop offset="1" stop-opacity="0"/></linearGradient><radialGradient id="b" cx="450.908936" cy="189.579361" gradientTransform="matrix(.00000026 -.117199 -.210958 -.00000015 66.784728 95.392994)" gradientUnits="userSpaceOnUse" r="21.166656" xlink:href="#a"/><radialGradient id="c" cx="450.908936" cy="189.579361" gradientTransform="matrix(-.00000026 .117199 .210958 .00000015 -19.155178 -11.291223)" gradientUnits="userSpaceOnUse" r="21.166656" xlink:href="#a"/><radialGradient id="d" cx="450.908936" cy="189.579361" gradientTransform="matrix(-.00000026 -.117199 .210958 -.00000015 -19.155178 95.392994)" gradientUnits="userSpaceOnUse" r="21.166656" xlink:href="#a"/><radialGradient id="e" cx="450.908936" cy="189.579361" gradientTransform="matrix(.00000026 .117199 -.210958 .00000015 66.784725 -11.291224)" gradientUnits="userSpaceOnUse" r="21.166656" xlink:href="#a"/><linearGradient id="f" gradientTransform="matrix(.0200401 0 0 .093759 18.698079 20.158175)" gradientUnits="userSpaceOnUse" x1="255.323059" x2="255.323044" y1="233.5" y2="254.666656"><stop offset="0" stop-opacity=".27451"/><stop offset="1" stop-opacity="0"/></linearGradient><linearGradient id="g" gradientUnits="userSpaceOnUse" x1="254" x2="254" y1="-168.666672" y2="233.5"><stop offset="0" stop-color="#aed581"/><stop offset="1" stop-color="#9ccc65"/></linearGradient><path d="m27.289062 42.050781h3.96875v-1.984375h-3.96875zm0 0" fill="url(#b)"/><path d="m20.339844 42.050781h-3.96875v1.984375h3.96875zm0 0" fill="url(#c)"/><path d="m20.339844 42.050781h-3.96875v-1.984375h3.96875zm0 0" fill="url(#d)"/><path d="m27.289062 42.050781h3.96875v1.984375h-3.96875zm0 0" fill="url(#e)"/><path d="m20.339844 41.554688h6.949218v2.480468h-6.949218zm0 0" fill="url(#f)"/><path d="m254.017409-168.671091c111.031064 0 201.064133 90.033069 201.064133 201.105795 0 111.031064-90.033069 201.064133-201.064133 201.064133-111.072726 0-201.105795-90.033069-201.105795-201.064133 0-111.072726 90.033069-201.105795 201.105795-201.105795zm0 0" fill="url(#g)" stroke="#333" stroke-linecap="round" stroke-width="3" transform="matrix(.093759 0 0 .093759 0 20.158175)"/><path d="m23.816406 42.050781c-10.445312 0-18.855468-8.410156-18.855468-18.851562 0-.0625 0-.125 0-.1875.101562 10.359375 8.472656 18.667969 18.855468 18.667969 10.382813 0 18.753906-8.308594 18.851563-18.667969v.1875c0 10.441406-8.410157 18.851562-18.851563 18.851562zm0 0" fill-opacity=".196078"/><path d="m23.816406 4.34375c-10.445312 0-18.855468 8.410156-18.855468 18.855469v.183593c.101562-10.359374 8.472656-18.667968 18.855468-18.667968 10.382813 0 18.753906 8.308594 18.851563 18.667968 0-.0625 0-.125 0-.183593 0-10.445313-8.410157-18.855469-18.851563-18.855469zm0 0" fill="#fff" fill-opacity=".392157"/><path d="m23.816406 4.203125c-10.523437 0-18.996094 8.472656-18.996094 18.996094 0 10.519531 8.472657 18.992187 18.996094 18.992187 10.519532 0 18.992188-8.472656 18.992188-18.992187 0-10.523438-8.472656-18.996094-18.992188-18.996094zm0 .28125c10.367188 0 18.710938 8.34375 18.710938 18.714844 0 10.367187-8.34375 18.710937-18.710938 18.710937-10.371094 0-18.714844-8.34375-18.714844-18.710937 0-10.371094 8.34375-18.714844 18.714844-18.714844zm0 0" fill="#212121"/><path d="m17.363281 23.199219c0 1.210937-.054687 7.984375.992188 8.589843 1.050781.605469 6.890625-2.828124 7.941406-3.433593 1.046875-.609375 6.945313-3.945313 6.945313-5.15625 0-1.210938-5.898438-4.550781-6.945313-5.15625-1.050781-.605469-6.890625-4.042969-7.941406-3.4375-1.046875.605469-.992188 7.382812-.992188 8.59375zm0 0" fill="#e0e0e0"/><path d="m18.6875 14.53125c-.136719.003906-.25.027344-.332031.074219-1 .578125-.992188 6.71875-.992188 8.335937.007813-2.148437.082031-7.316406.992188-7.839844 1.050781-.605468 6.890625 2.832032 7.941406 3.4375.984375.566407 6.234375 3.539063 6.878906 4.90625.042969-.089843.066407-.171874.066407-.246093 0-1.210938-5.898438-4.550781-6.945313-5.15625-.96875-.558594-6.007813-3.523438-7.609375-3.511719zm-1.324219 8.914062v.503907c0-.078125 0-.199219 0-.253907 0-.054687 0-.175781 0-.25zm0 0" fill="#fff"/><path d="m18.6875 31.863281c-.136719-.003906-.25-.023437-.332031-.074219-1-.574218-.992188-6.71875-.992188-8.335937.007813 2.148437.082031 7.316406.992188 7.839844 1.050781.605469 6.890625-2.828125 7.941406-3.433594.984375-.570313 6.234375-3.542969 6.878906-4.910156.042969.089843.066407.171875.066407.25 0 1.210937-5.898438 4.546875-6.945313 5.15625-.96875.554687-6.007813 3.519531-7.609375 3.507812zm-1.324219-8.914062c0-.148438 0-.285157 0-.503907v.257813zm0 0" fill-opacity=".235294"/><path d="m18.59375 14.394531c.117188-.007812.242188 0 .382812.019531.277344.039063.601563.128907.960938.253907.722656.25 1.585938.644531 2.453125 1.074219 1.726563.863281 3.453125 1.875 3.976563 2.175781.519531.304687 2.261718 1.292969 3.871093 2.355469.804688.535156 1.578125 1.085937 2.15625 1.585937.289063.25.53125.488281.703125.707031s.285156.421875.285156.632813c0 .207031-.113281.410156-.285156.628906s-.414062.457031-.703125.707031c-.578125.5-1.351562 1.050782-2.15625 1.585938-1.609375 1.0625-3.351562 2.050781-3.871093 2.355468-.523438.300782-2.25 1.3125-3.976563 2.175782-.867187.429687-1.730469.824218-2.453125 1.074218-.359375.125-.683594.214844-.960938.253907-.277343.039062-.507812.035156-.691406-.066407-.179687-.105468-.296875-.304687-.402344-.5625-.105468-.261718-.1875-.585937-.261718-.960937-.144532-.75-.234375-1.695313-.292969-2.660156-.117187-1.929688-.105469-3.929688-.105469-4.53125 0-.605469-.011718-2.605469.105469-4.535157.058594-.960937.148437-1.910156.292969-2.660156.074218-.375.15625-.699218.261718-.957031.105469-.261719.222657-.460937.402344-.566406.09375-.050781.195313-.078125.308594-.085938zm.027344.285157c-.085938.003906-.152344.023437-.195313.046874-.078125.046876-.1875.191407-.28125.421876-.09375.234374-.175781.546874-.246093.910156-.140626.730468-.230469 1.667968-.289063 2.625-.117187 1.914062-.105469 3.90625-.105469 4.515625 0 .605469-.011718 2.597656.105469 4.511719.058594.960937.148437 1.898437.289063 2.625.070312.363281.152343.675781.246093.910156.09375.230468.203125.375.28125.421875.082031.046875.261719.070312.511719.035156.246094-.035156.558594-.121094.910156-.242187.699219-.242188 1.558594-.632813 2.414063-1.058594 1.71875-.859375 3.4375-1.867188 3.964843-2.171875.523438-.300781 2.257813-1.285157 3.859376-2.34375.796874-.53125 1.566406-1.078125 2.125-1.5625.28125-.246094.511718-.472657.664062-.667969.15625-.199219.226562-.363281.226562-.457031 0-.097657-.070312-.261719-.226562-.460938-.152344-.195312-.382812-.421875-.664062-.664062-.558594-.488281-1.328126-1.035157-2.125-1.5625-1.601563-1.058594-3.335938-2.042969-3.859376-2.347657-.527343-.304687-2.246093-1.3125-3.964843-2.167968-.855469-.429688-1.714844-.820313-2.414063-1.0625-.351562-.121094-.664062-.207032-.910156-.242188-.125-.015625-.230469-.019531-.316406-.011718zm0 0" fill="#212121"/></svg>

<?xml version="1.0" encoding="UTF-8"?>
<svg xmlns="http://www.w3.org/2000/svg" xmlns:xlink="http://www.w3.org/1999/xlink" width="48pt" height="48pt" viewBox="0 0 48 48" version="1.1">
<defs>
<radialGradient id="radial0" gradientUnits="userSpaceOnUse" cx="450.908936" cy="189.579361" fx="450.908936" fy="189.579361" r="21.166656" gradientTransform="matrix(0.000000261256,-0.117199,-0.210958,-0.000000152308,66.784728,95.392994)">
<stop offset="0" style="stop-color:rgb(0%,0%,0%);stop-opacity:0.313725;"/>
<stop offset="0.222222" style="stop-color:rgb(0%,0%,0%);stop-opacity:0.27451;"/>
<stop offset="1" style="stop-color:rgb(0%,0%,0%);stop-opacity:0;"/>
</radialGradient>
<radialGradient id="radial1" gradientUnits="userSpaceOnUse" cx="450.908936" cy="189.579361" fx="450.908936" fy="189.579361" r="21.166656" gradientTransform="matrix(-0.000000261256,0.117199,0.210958,0.000000152308,-19.155178,-11.291223)">
<stop offset="0" style="stop-color:rgb(0%,0%,0%);stop-opacity:0.313725;"/>
<stop offset="0.222222" style="stop-color:rgb(0%,0%,0%);stop-opacity:0.27451;"/>
<stop offset="1" style="stop-color:rgb(0%,0%,0%);stop-opacity:0;"/>
</radialGradient>
<radialGradient id="radial2" gradientUnits="userSpaceOnUse" cx="450.908936" cy="189.579361" fx="450.908936" fy="189.579361" r="21.166656" gradientTransform="matrix(-0.000000261256,-0.117199,0.210958,-0.000000152308,-19.155178,95.392994)">
<stop offset="0" style="stop-color:rgb(0%,0%,0%);stop-opacity:0.313725;"/>
<stop offset="0.222222" style="stop-color:rgb(0%,0%,0%);stop-opacity:0.27451;"/>
<stop offset="1" style="stop-color:rgb(0%,0%,0%);stop-opacity:0;"/>
</radialGradient>
<radialGradient id="radial3" gradientUnits="userSpaceOnUse" cx="450.908936" cy="189.579361" fx="450.908936" fy="189.579361" r="21.166656" gradientTransform="matrix(0.000000261256,0.117199,-0.210958,0.000000152308,66.784725,-11.291224)">
<stop offset="0" style="stop-color:rgb(0%,0%,0%);stop-opacity:0.313725;"/>
<stop offset="0.222222" style="stop-color:rgb(0%,0%,0%);stop-opacity:0.27451;"/>
<stop offset="1" style="stop-color:rgb(0%,0%,0%);stop-opacity:0;"/>
</radialGradient>
<linearGradient id="linear0" gradientUnits="userSpaceOnUse" x1="255.323059" y1="233.5" x2="255.323044" y2="254.666656" gradientTransform="matrix(0.0200401,0,0,0.093759,18.698079,20.158175)">
<stop offset="0" style="stop-color:rgb(0%,0%,0%);stop-opacity:0.27451;"/>
<stop offset="1" style="stop-color:rgb(0%,0%,0%);stop-opacity:0;"/>
</linearGradient>
<linearGradient id="linear1" gradientUnits="userSpaceOnUse" x1="254" y1="-168.666672" x2="254" y2="233.5" gradientTransform="matrix(1,0,0,1,0,0)">
<stop offset="0" style="stop-color:rgb(68.235294%,83.529412%,50.588235%);stop-opacity:1;"/>
<stop offset="1" style="stop-color:rgb(61.176471%,80%,39.607843%);stop-opacity:1;"/>
</linearGradient>
</defs>
<g id="surface1">
<path style=" stroke:none;fill-rule:nonzero;fill:url(#radial0);" d="M 27.289062 42.050781 L 31.257812 42.050781 L 31.257812 40.066406 L 27.289062 40.066406 Z M 27.289062 42.050781 "/>
<path style=" stroke:none;fill-rule:nonzero;fill:url(#radial1);" d="M 20.339844 42.050781 L 16.371094 42.050781 L 16.371094 44.035156 L 20.339844 44.035156 Z M 20.339844 42.050781 "/>
<path style=" stroke:none;fill-rule:nonzero;fill:url(#radial2);" d="M 20.339844 42.050781 L 16.371094 42.050781 L 16.371094 40.066406 L 20.339844 40.066406 Z M 20.339844 42.050781 "/>
<path style=" stroke:none;fill-rule:nonzero;fill:url(#radial3);" d="M 27.289062 42.050781 L 31.257812 42.050781 L 31.257812 44.035156 L 27.289062 44.035156 Z M 27.289062 42.050781 "/>
<path style=" stroke:none;fill-rule:nonzero;fill:url(#linear0);" d="M 20.339844 41.554688 L 27.289062 41.554688 L 27.289062 44.035156 L 20.339844 44.035156 Z M 20.339844 41.554688 "/>
<path style="fill-rule:nonzero;fill:url(#linear1);stroke-width:3;stroke-linecap:round;stroke-linejoin:miter;stroke:rgb(20%,20%,20%);stroke-opacity:1;stroke-miterlimit:4;" d="M 254.017409 -168.671091 C 365.048473 -168.671091 455.081542 -78.638022 455.081542 32.434704 C 455.081542 143.465768 365.048473 233.498837 254.017409 233.498837 C 142.944683 233.498837 52.911614 143.465768 52.911614 32.434704 C 52.911614 -78.638022 142.944683 -168.671091 254.017409 -168.671091 Z M 254.017409 -168.671091 " transform="matrix(0.093759,0,0,0.093759,0,20.158175)"/>
<path style=" stroke:none;fill-rule:nonzero;fill:rgb(0%,0%,0%);fill-opacity:0.196078;" d="M 23.816406 42.050781 C 13.371094 42.050781 4.960938 33.640625 4.960938 23.199219 C 4.960938 23.136719 4.960938 23.074219 4.960938 23.011719 C 5.0625 33.371094 13.433594 41.679688 23.816406 41.679688 C 34.199219 41.679688 42.570312 33.371094 42.667969 23.011719 C 42.667969 23.074219 42.667969 23.136719 42.667969 23.199219 C 42.667969 33.640625 34.257812 42.050781 23.816406 42.050781 Z M 23.816406 42.050781 "/>
<path style=" stroke:none;fill-rule:nonzero;fill:rgb(100%,100%,100%);fill-opacity:0.392157;" d="M 23.816406 4.34375 C 13.371094 4.34375 4.960938 12.753906 4.960938 23.199219 C 4.960938 23.257812 4.960938 23.320312 4.960938 23.382812 C 5.0625 13.023438 13.433594 4.714844 23.816406 4.714844 C 34.199219 4.714844 42.570312 13.023438 42.667969 23.382812 C 42.667969 23.320312 42.667969 23.257812 42.667969 23.199219 C 42.667969 12.753906 34.257812 4.34375 23.816406 4.34375 Z M 23.816406 4.34375 "/>
<path style=" stroke:none;fill-rule:nonzero;fill:rgb(12.941177%,12.941177%,12.941177%);fill-opacity:1;" d="M 23.816406 4.203125 C 13.292969 4.203125 4.820312 12.675781 4.820312 23.199219 C 4.820312 33.71875 13.292969 42.191406 23.816406 42.191406 C 34.335938 42.191406 42.808594 33.71875 42.808594 23.199219 C 42.808594 12.675781 34.335938 4.203125 23.816406 4.203125 Z M 23.816406 4.484375 C 34.183594 4.484375 42.527344 12.828125 42.527344 23.199219 C 42.527344 33.566406 34.183594 41.910156 23.816406 41.910156 C 13.445312 41.910156 5.101562 33.566406 5.101562 23.199219 C 5.101562 12.828125 13.445312 4.484375 23.816406 4.484375 Z M 23.816406 4.484375 "/>
<path style=" stroke:none;fill-rule:nonzero;fill:rgb(87.843138%,87.843138%,87.843138%);fill-opacity:1;" d="M 17.363281 23.199219 C 17.363281 24.410156 17.308594 31.183594 18.355469 31.789062 C 19.40625 32.394531 25.246094 28.960938 26.296875 28.355469 C 27.34375 27.746094 33.242188 24.410156 33.242188 23.199219 C 33.242188 21.988281 27.34375 18.648438 26.296875 18.042969 C 25.246094 17.4375 19.40625 14 18.355469 14.605469 C 17.308594 15.210938 17.363281 21.988281 17.363281 23.199219 Z M 17.363281 23.199219 "/>
<path style=" stroke:none;fill-rule:nonzero;fill:rgb(100%,100%,100%);fill-opacity:1;" d="M 18.6875 14.53125 C 18.550781 14.535156 18.4375 14.558594 18.355469 14.605469 C 17.355469 15.183594 17.363281 21.324219 17.363281 22.941406 C 17.371094 20.792969 17.445312 15.625 18.355469 15.101562 C 19.40625 14.496094 25.246094 17.933594 26.296875 18.539062 C 27.28125 19.105469 32.53125 22.078125 33.175781 23.445312 C 33.21875 23.355469 33.242188 23.273438 33.242188 23.199219 C 33.242188 21.988281 27.34375 18.648438 26.296875 18.042969 C 25.328125 17.484375 20.289062 14.519531 18.6875 14.53125 Z M 17.363281 23.445312 C 17.363281 23.59375 17.363281 23.730469 17.363281 23.949219 C 17.363281 23.871094 17.363281 23.75 17.363281 23.695312 C 17.363281 23.640625 17.363281 23.519531 17.363281 23.445312 Z M 17.363281 23.445312 "/>
<path style=" stroke:none;fill-rule:nonzero;fill:rgb(0%,0%,0%);fill-opacity:0.235294;" d="M 18.6875 31.863281 C 18.550781 31.859375 18.4375 31.839844 18.355469 31.789062 C 17.355469 31.214844 17.363281 25.070312 17.363281 23.453125 C 17.371094 25.601562 17.445312 30.769531 18.355469 31.292969 C 19.40625 31.898438 25.246094 28.464844 26.296875 27.859375 C 27.28125 27.289062 32.53125 24.316406 33.175781 22.949219 C 33.21875 23.039062 33.242188 23.121094 33.242188 23.199219 C 33.242188 24.410156 27.34375 27.746094 26.296875 28.355469 C 25.328125 28.910156 20.289062 31.875 18.6875 31.863281 Z M 17.363281 22.949219 C 17.363281 22.800781 17.363281 22.664062 17.363281 22.445312 C 17.363281 22.523438 17.363281 22.644531 17.363281 22.703125 C 17.363281 22.753906 17.363281 22.875 17.363281 22.949219 Z M 17.363281 22.949219 "/>
<path style=" stroke:none;fill-rule:nonzero;fill:rgb(12.941177%,12.941177%,12.941177%);fill-opacity:1;" d="M 18.59375 14.394531 C 18.710938 14.386719 18.835938 14.394531 18.976562 14.414062 C 19.253906 14.453125 19.578125 14.542969 19.9375 14.667969 C 20.660156 14.917969 21.523438 15.3125 22.390625 15.742188 C 24.117188 16.605469 25.84375 17.617188 26.367188 17.917969 C 26.886719 18.222656 28.628906 19.210938 30.238281 20.273438 C 31.042969 20.808594 31.816406 21.359375 32.394531 21.859375 C 32.683594 22.109375 32.925781 22.347656 33.097656 22.566406 C 33.269531 22.785156 33.382812 22.988281 33.382812 23.199219 C 33.382812 23.40625 33.269531 23.609375 33.097656 23.828125 C 32.925781 24.046875 32.683594 24.285156 32.394531 24.535156 C 31.816406 25.035156 31.042969 25.585938 30.238281 26.121094 C 28.628906 27.183594 26.886719 28.171875 26.367188 28.476562 C 25.84375 28.777344 24.117188 29.789062 22.390625 30.652344 C 21.523438 31.082031 20.660156 31.476562 19.9375 31.726562 C 19.578125 31.851562 19.253906 31.941406 18.976562 31.980469 C 18.699219 32.019531 18.46875 32.015625 18.285156 31.914062 C 18.105469 31.808594 17.988281 31.609375 17.882812 31.351562 C 17.777344 31.089844 17.695312 30.765625 17.621094 30.390625 C 17.476562 29.640625 17.386719 28.695312 17.328125 27.730469 C 17.210938 25.800781 17.222656 23.800781 17.222656 23.199219 C 17.222656 22.59375 17.210938 20.59375 17.328125 18.664062 C 17.386719 17.703125 17.476562 16.753906 17.621094 16.003906 C 17.695312 15.628906 17.777344 15.304688 17.882812 15.046875 C 17.988281 14.785156 18.105469 14.585938 18.285156 14.480469 C 18.378906 14.429688 18.480469 14.402344 18.59375 14.394531 Z M 18.621094 14.679688 C 18.535156 14.683594 18.46875 14.703125 18.425781 14.726562 C 18.347656 14.773438 18.238281 14.917969 18.144531 15.148438 C 18.050781 15.382812 17.96875 15.695312 17.898438 16.058594 C 17.757812 16.789062 17.667969 17.726562 17.609375 18.683594 C 17.492188 20.597656 17.503906 22.589844 17.503906 23.199219 C 17.503906 23.804688 17.492188 25.796875 17.609375 27.710938 C 17.667969 28.671875 17.757812 29.609375 17.898438 30.335938 C 17.96875 30.699219 18.050781 31.011719 18.144531 31.246094 C 18.238281 31.476562 18.347656 31.621094 18.425781 31.667969 C 18.507812 31.714844 18.6875 31.738281 18.9375 31.703125 C 19.183594 31.667969 19.496094 31.582031 19.847656 31.460938 C 20.546875 31.21875 21.40625 30.828125 22.261719 30.402344 C 23.980469 29.542969 25.699219 28.535156 26.226562 28.230469 C 26.75 27.929688 28.484375 26.945312 30.085938 25.886719 C 30.882812 25.355469 31.652344 24.808594 32.210938 24.324219 C 32.492188 24.078125 32.722656 23.851562 32.875 23.65625 C 33.03125 23.457031 33.101562 23.292969 33.101562 23.199219 C 33.101562 23.101562 33.03125 22.9375 32.875 22.738281 C 32.722656 22.542969 32.492188 22.316406 32.210938 22.074219 C 31.652344 21.585938 30.882812 21.039062 30.085938 20.511719 C 28.484375 19.453125 26.75 18.46875 26.226562 18.164062 C 25.699219 17.859375 23.980469 16.851562 22.261719 15.996094 C 21.40625 15.566406 20.546875 15.175781 19.847656 14.933594 C 19.496094 14.8125 19.183594 14.726562 18.9375 14.691406 C 18.8125 14.675781 18.707031 14.671875 18.621094 14.679688 Z M 18.621094 14.679688 "/>
</g>
</svg>
